X: 1
T: Christy Barry's No. 1
Z: Greg Taylor <taylgr:SHASTA.CSUCHICO.EDU> irtrad-l 2000-11-30
C: Christy Barry
N: I recall Kevin mentioning one time while here that Christy Barry was a
N: Chicago policeman and did compose the tunes.
M: 6/8
L: 1/8
K: G
D \
| "G"GGG "(Em)"BAG | "Am"AAB "D7"d2e | "G"ged "Em"BGG | "Am"AAA "D7"BGE \
| "G"DGG "(Em)"BGG | "Am"AAB "D7"d2e | "G"ged     BGG | "D7"AGF  "G"G2 |]
|: {B}d \
| "G"ggg "(Em)"gfg | "Am"aag "D7"d2e | "G"ged "Em"BGG | "Am"AAA "D7"BGE \
| "G"DGG "(Em)"BGG | "Am"AAB "D7"d2e | "G"ged     BGG | "D7"AGF  "G"G2 :|
